X: 21226
T: Keel Row, The
R: polka
M: 2/4
K: Gmajor
|:c|B2 G>B|c2 A>c|B2 G>B|A>F D>c|
B2 G>B|c2 A>c|B>G A>F|G3:|
|:D|B>d d>g|e2 d>c|B2 G>B|A>F D>c|
B>d d>g|e2 d>c|B>G A>F|G3:|

